packages/kaspersky-hexa-ui-icons/src/iconsSVGs/64x42/FlagTc.svg

<svg xmlns="http://www.w3.org/2000/svg" width="64" height="42" fill="none" viewBox="0 0 64 42"><g clip-path="url(#a)"><rect width="64" height="42" fill="#fff" rx="5"/><path fill="#07319c" d="M0 0h64v42H0z"/><mask id="b" fill="#fff"><path fill-rule="evenodd" d="M38 21.8v-7.0018C38 13.2518 39.2536 12 40.8 12h8.4c1.5464 0 2.8 1.2518 2.8 2.7982V21.8c0 7-7 9.8-7 9.8s-7-2.8-7-9.8" clip-rule="evenodd"/></mask><path fill="#ffd033" fill-rule="evenodd" stroke="#fff" stroke-width="3" d="M38 21.8v-7.0018C38 13.2518 39.2536 12 40.8 12h8.4c1.5464 0 2.8 1.2518 2.8 2.7982V21.8c0 7-7 9.8-7 9.8s-7-2.8-7-9.8Z" clip-rule="evenodd" mask="url(#b)"/><mask id="d" width="14" height="20" x="38" y="12" maskUnits="userSpaceOnUse" style="mask-type:luminance"><mask id="c" fill="#fff"><path fill-rule="evenodd" d="M38 21.8v-7.0018C38 13.2518 39.2536 12 40.8 12h8.4c1.5464 0 2.8 1.2518 2.8 2.7982V21.8c0 7-7 9.8-7 9.8s-7-2.8-7-9.8" clip-rule="evenodd"/></mask><path fill="#fff" fill-rule="evenodd" stroke="#fff" stroke-width="3" d="M38 21.8v-7.0018C38 13.2518 39.2536 12 40.8 12h8.4c1.5464 0 2.8 1.2518 2.8 2.7982V21.8c0 7-7 9.8-7 9.8s-7-2.8-7-9.8Z" clip-rule="evenodd" mask="url(#c)"/></mask><g mask="url(#d)"><ellipse cx="48" cy="18" fill="#ba5b1f" rx="1" ry="3"/><ellipse cx="42" cy="18" fill="#ff9f3e" rx="1" ry="3" transform="rotate(-20 41.673 17.684)"/><ellipse cx="43" cy="18" fill="#ff937f" rx="1" ry="3" transform="rotate(25 42.792 17.731)"/><path fill="#01a827" fill-rule="evenodd" d="m43.6001 23.2 1.4-2.8 1.4 2.8V26h-2.8z" clip-rule="evenodd"/></g><path fill="#042c90" d="M0 0h26.7134v21H0z"/><mask id="e" width="27" height="21" x="0" y="0" maskUnits="userSpaceOnUse" style="mask-type:alpha"><path fill="#0a17a7" d="M0 0h26.7133v21H0z"/></mask><g mask="url(#e)"><mask id="f" width="35" height="27" x="-4" y="-3" fill="#000" maskUnits="userSpaceOnUse"><path fill="#fff" d="M-4-3h35v27H-4z"/><path fill-rule="evenodd" d="M10.3885 9 0 0h1.484l10.3886 7.5h2.9682L26.7134 0v1.5L16.3248 9v3l10.3886 9h-1.2582a.7.7 0 0 1-.4091-.1322L14.8408 13.5h-2.9682L0 21v-1.5L10.3885 12z" clip-rule="evenodd"/></mask><path fill="#ff2e3b" fill-rule="evenodd" d="M10.3885 9 0 0h1.484l10.3886 7.5h2.9682L26.7134 0v1.5L16.3248 9v3l10.3886 9h-1.2582a.7.7 0 0 1-.4091-.1322L14.8408 13.5h-2.9682L0 21v-1.5L10.3885 12z" clip-rule="evenodd"/><path stroke="#fff" stroke-width="3" d="M10.3885 9 0 0h1.484l10.3886 7.5h2.9682L26.7134 0v1.5L16.3248 9v3l10.3886 9h-1.2582a.7.7 0 0 1-.4091-.1322L14.8408 13.5h-2.9682L0 21v-1.5L10.3885 12z" clip-rule="evenodd" mask="url(#f)"/><path fill="#fff" fill-rule="evenodd" d="M0 7.5v6h10.3885v7.6024c0 .7719.6258 1.3976 1.3976 1.3976h3.1411c.7719 0 1.3976-.6257 1.3976-1.3976V13.5h10.4751c.7718 0 1.3975-.6257 1.3975-1.3976V8.8976c0-.7719-.6257-1.3976-1.3975-1.3976H16.3248V0h-5.9363v7.5z" clip-rule="evenodd"/><path fill="#ff2e3b" fill-rule="evenodd" d="M0 9h11.8726V0h2.9682v9h11.8726v3H14.8408v9h-2.9682v-9H0z" clip-rule="evenodd"/></g></g><defs><clipPath id="a"><rect width="64" height="42" fill="#fff" rx="5"/></clipPath></defs></svg>

<svg width="64" height="42" viewBox="0 0 64 42" fill="none" xmlns="http://www.w3.org/2000/svg">
<g clip-path="url(#clip0_37941_2368)">
<rect width="64" height="42" rx="5" fill="white"/>
<rect width="64" height="42" fill="#07319C"/>
<mask id="path-3-inside-1_37941_2368" fill="white">
<path fill-rule="evenodd" clip-rule="evenodd" d="M38 21.8C38 19.5031 38 16.7876 38 14.7982C38 13.2518 39.2536 12 40.8 12H49.2C50.7464 12 52 13.2518 52 14.7982C52 16.7876 52 19.5031 52 21.8C52 28.8 45 31.6 45 31.6C45 31.6 38 28.8 38 21.8Z"/>
</mask>
<path fill-rule="evenodd" clip-rule="evenodd" d="M38 21.8C38 19.5031 38 16.7876 38 14.7982C38 13.2518 39.2536 12 40.8 12H49.2C50.7464 12 52 13.2518 52 14.7982C52 16.7876 52 19.5031 52 21.8C52 28.8 45 31.6 45 31.6C45 31.6 38 28.8 38 21.8Z" fill="#FFD033" stroke="white" stroke-width="2.8" mask="url(#path-3-inside-1_37941_2368)"/>
<mask id="mask0_37941_2368" style="mask-type:luminance" maskUnits="userSpaceOnUse" x="38" y="12" width="14" height="20">
<mask id="path-4-inside-2_37941_2368" fill="white">
<path fill-rule="evenodd" clip-rule="evenodd" d="M38 21.8C38 19.5031 38 16.7876 38 14.7982C38 13.2518 39.2536 12 40.8 12H49.2C50.7464 12 52 13.2518 52 14.7982C52 16.7876 52 19.5031 52 21.8C52 28.8 45 31.6 45 31.6C45 31.6 38 28.8 38 21.8Z"/>
</mask>
<path fill-rule="evenodd" clip-rule="evenodd" d="M38 21.8C38 19.5031 38 16.7876 38 14.7982C38 13.2518 39.2536 12 40.8 12H49.2C50.7464 12 52 13.2518 52 14.7982C52 16.7876 52 19.5031 52 21.8C52 28.8 45 31.6 45 31.6C45 31.6 38 28.8 38 21.8Z" fill="white" stroke="white" stroke-width="2.8" mask="url(#path-4-inside-2_37941_2368)"/>
</mask>
<g mask="url(#mask0_37941_2368)">
<ellipse cx="47.7999" cy="17.6" rx="1.4" ry="2.8" fill="#BA5B1F"/>
<ellipse cx="41.6734" cy="17.6845" rx="1.4" ry="2.8" transform="rotate(-20 41.6734 17.6845)" fill="#FF9F3E"/>
<ellipse cx="42.7916" cy="17.7313" rx="1.4" ry="2.8" transform="rotate(25 42.7916 17.7313)" fill="#FF937F"/>
<path fill-rule="evenodd" clip-rule="evenodd" d="M43.6001 23.2L45.0001 20.4L46.4001 23.2V26H43.6001V23.2Z" fill="#01A827"/>
</g>
<rect width="26.7134" height="21" fill="#042C90"/>
<mask id="mask1_37941_2368" style="mask-type:alpha" maskUnits="userSpaceOnUse" x="0" y="0" width="27" height="21">
<rect width="26.7133" height="21" fill="#0A17A7"/>
</mask>
<g mask="url(#mask1_37941_2368)">
<mask id="path-11-outside-3_37941_2368" maskUnits="userSpaceOnUse" x="-4" y="-3" width="35" height="27" fill="black">
<rect fill="white" x="-4" y="-3" width="35" height="27"/>
<path fill-rule="evenodd" clip-rule="evenodd" d="M10.3885 9L0 0H1.48408L11.8726 7.5H14.8408L26.7134 0V1.5L16.3248 9V12L26.7134 21H25.4552C25.3083 21 25.1652 20.9537 25.0461 20.8678L14.8408 13.5H11.8726L0 21V19.5L10.3885 12V9Z"/>
</mask>
<path fill-rule="evenodd" clip-rule="evenodd" d="M10.3885 9L0 0H1.48408L11.8726 7.5H14.8408L26.7134 0V1.5L16.3248 9V12L26.7134 21H25.4552C25.3083 21 25.1652 20.9537 25.0461 20.8678L14.8408 13.5H11.8726L0 21V19.5L10.3885 12V9Z" fill="#FF2E3B"/>
<path fill-rule="evenodd" clip-rule="evenodd" d="M10.3885 9L0 0H1.48408L11.8726 7.5H14.8408L26.7134 0V1.5L16.3248 9V12L26.7134 21H25.4552C25.3083 21 25.1652 20.9537 25.0461 20.8678L14.8408 13.5H11.8726L0 21V19.5L10.3885 12V9Z" stroke="white" stroke-width="2.7952" mask="url(#path-11-outside-3_37941_2368)"/>
<path fill-rule="evenodd" clip-rule="evenodd" d="M0 7.5V13.5H10.3885V21.1024C10.3885 21.8743 11.0143 22.5 11.7861 22.5H14.9272C15.6991 22.5 16.3248 21.8743 16.3248 21.1024V13.5H26.7999C27.5717 13.5 28.1974 12.8743 28.1974 12.1024V8.8976C28.1974 8.12573 27.5717 7.5 26.7999 7.5H16.3248V0H10.3885V7.5H0Z" fill="white"/>
<path fill-rule="evenodd" clip-rule="evenodd" d="M0 9H11.8726V7.5V0H14.8408V7.5V9H26.7134V12H14.8408V13.5V21H11.8726V13.5V12H0V9Z" fill="#FF2E3B"/>
</g>
</g>
<defs>
<clipPath id="clip0_37941_2368">
<rect width="64" height="42" rx="5" fill="white"/>
</clipPath>
</defs>
</svg>
